X:1
T:Allegretto Op.120, No.5
T:Ferdinando Carulli (1770-1841)
%%score { ( 1 2 ) ( 3 4 ) }
L:1/8
Q:3/8=88
M:6/8
K:A
V:1 treble-8 nm="Guitare classique"
V:2 treble-8 
V:3 treble-8 nm="Guitare classique"
V:4 treble-8 
V:1
"_" e | e2 c d2 f | e2 c d2 f | e2 c a2 f | e2 d c2 e | e2 c"_" f2 e | d2 B"_" e2 d | %7
 c2 A [Bd]2 [Ac] | [GB]2 B [GB]2 ::"_" e | g2 e f2 g | a2 e c2 e | [Bd]2 [Bd] [Bd]2 [Bd] | %13
 [Ac]2 [Bd] [ce]2 a | g2 e f2 g | a2 e c2 e | d2 c d2 B | A2 x x2!fine! ::"_" z | F2 A d2 A | %20
 F2 A d2 A | F2 A d2 e | [EA]2 [EA] [EA]2 x | F2 A d2 A | F2 A d2 e | f2 e d2 A | F2 A F2 :: z | %28
"_" e2 f =g2 f | e2 d e2 f | =g2 f g2 f | e2 e e2 x | F2 A d2 A | F2 A d2 e | f2 e d2 A | %35
 F2 A F2!D.C.! :| %36
V:2
 x | A,6 | A,6 | A,6 | A,6 | A,3 F3 | z3 E3 | x6 | E2 G E2 :: x | E,6 | A,6 | E,6 | A,6 | E,6 | %15
 A,6 | E,3 E,3 | A,2 z z2 :: x | x6 | x6 | x6 | C2 C C2 z | x6 | x6 | x6 | x5 :: x | A2 d e2 d | %29
 A2 F A2 d | e2 d e2 d | A2 A A2 z | x6 | x6 | x6 | x5 :| %36
V:3
 c | c2 A B2 d | c2 A B2 d | c2 A f2 d | c2 B A2 c | c2 A"_" x2 c | B2 D"_" x2 B | %7
 A2 C D2 ^D | E2 B, E,2 :: z |"_" [Bd]2 [Bd] [Bd]2 [Bd] | [Ac]3 A2 c | G2 E F2 G | A2 E C2 A, | %14
 [Bd]2 [Bd] [Bd]2 [Bd] | [Ac]3 A2 c | G2 E F2 G | [EA]2 x x2 ::"_" A | d2 e f2 e | d2 e f2 e | %21
 d2 e f2 =g | [ce]2 [ce] [ce]2 x | d2 e f2 e | d2 e f2 =g | a2 =g f2 e | d2 f d2 :: a | %28
"_" a2 a a2 a | a2 a a2 a | a2 a a2 a | [ca]2 [ca] [ca]2 A | d2 e f2 e | d2 e f2 =g | a2 =g f2 e | %35
 d2 f d2 :| %36
V:4
 x | A,6 | A,6 | A,6 | A,6 | A,3 ^A,3 | B,2 D G,3 | A,2 C D2 ^D | E2 B, E,2 :: x | E6 | E3 z3 | %12
 x6 | x6 | E6 | E3 z3 | x6 | C2 z z2 :: x | D6 | D6 | D6 | A,2 A, A,2 z | D6 | D6 | A,3 A,3 | %26
 D3 D2 :: x | A,6 | A,6 | A,6 | A,3 A,3 | D6 | D6 | A,3 A,3 | D3 D2 :| %36

